!!!!SEGMENT: 025_7-12-1a-BH-007.krn
!!!COM: Chopin, Fryderyk
!!!OTL: ETUDE. 7me
!!!OPS: Op. 25
!!!PTL: Douze Etudes pour le Piano
!!!PPR: Breitkopf & Härtel
!!!PPP: Leipzig
!!!AGN: Etude
!!!NIFC-rismID: 1001007334
!!!NIFC-shelfmark: PL-Wbfc 3880/n
!!!OMD: Lento.
**kern	**fing	**kern	**dynam
*part1	*	*part1	*part1
*staff2	*	*staff1	*
*clefF4	*	*clefG2	*
*k[f#c#g#d#]	*	*k[f#c#g#d#]	*
*c#:	*	*c#:	*
*MM66	*	*MM66	*
!	!	!	!LO:HP:b=2
(>4GG#	.	1.ryy	p <
4.D#	.	.	[[
8C#	.	.	.
!	!	!	!LO:HP:b=2
.	.	.	>
8C#L	.	.	.
8BB#XJ	.	.	]
4.A	.	.	.
8G#	.	.	.
!	!	!	!LO:HP:b=2
16F##XLL	.	1r	>
16G#	.	.	.
16A	.	.	.
16G#JJ	.	.	.
16BnLL	.	.	.
16A	.	.	.
16E	.	.	.
16E#XJJ	.	.	.
16F##LL	.	.	.
16E#	.	.	.
16G#	.	.	.
16F##JJ	.	.	.
16ALL	.	.	.
16G#	.	.	.
16C#	.	.	.
16D#JJ)	.	.	]]
=1	=1	=1	=1
*M3/4	*	*M3/4	*
!!!OMD: ([quarter] =66.)
8qE/	.	.	.
!	!	!	!LO:HP:b=2
!	!	!	!LO:DY:rj
(>2e	.	8r	pp >
.	.	(>8cc#L 8g#	.
.	.	8cc# 8g#	.
.	.	8cc# 8g#	.
8.d#L	.	8cc# 8g#	.
.	.	8cc#J 8g#	.
16c#Jk	.	.	.
=2	=2	=2	=2
*	*	*^	*
4..c#	.	2ee	8aL 8e	.
.	.	.	8a 8e	.
.	.	.	8a 8e	.
.	.	.	8a 8e	.
32d#LLL	.	.	.	.
32c#JJJ	.	.	.	.
8.BL	.	8.dd#L	8a 8e	.
.	.	.	8aJ 8e	.
16AJk)	.	16cc#Jk)	.	.
!!LO:LB:g=original
=3	=3	=3	=3	=3
(>[>4A	.	(>4cc#	8f#L 8d#	.
.	.	.	8f# 8d#	.
16ALL]	.	4b#X	8f# 8d#	.
16G#	.	.	.	.
16F##X	.	.	8f# 8d#	.
16G#JJ	.	.	.	]
16BLL	.	4cc#	8f# 8d#	.
16A	.	.	.	.
16F#X	.	.	8f#J 8d#	.
16D#JJ	.	.	.	.
=4	=4	=4	=4	=4
*	*^	*	*	*
4BB#)	.	.	4dd#	8f#L 8d#	.
.	.	.	.	8f# 8d#	.
8r	.	.	4..g#)	8f# 8d#	.
(>16FF##LL	.	.	.	8f# 8d#	.
16GG#JJ	.	.	.	.	.
!	!	!	!	!	!LO:HP:b=2
8qBBn/	.	.	.	.	<
16AALL	.	.	.	8f# 8B#X	.
16GG#	.	.	.	.	.
16C#	.	1	.	8f#J 8B#	.
16D#JJ	.	1	16g#	.	[[
*	*v	*v	*	*	*
=5	=5	=5	=5	=5
4E)	.	(>4g#	8rB	.
.	.	.	8c#L	.
(>4CC#	.	4cc#	8e 8c#	.
.	.	.	8e 8c#	.
8.G#L	.	4b	8e 8c#	.
.	.	.	8eJ 8c#	.
16G#Jk	.	.	.	.
=6	=6	=6	=6	=6
4G#)	.	4b	8eL 8c#	.
.	.	.	8e 8c#	.
!LO:TX:a:t=P:note-head-side tuplet number:problem	!	!	!	!
(>12FF#L\	.	4a	8e 8c#	.
12C#	.	.	.	.
.	.	.	8e 8c#	.
12F#J	.	.	.	.
12G#L\	.	4g#	8e 8c#	.
12B	.	.	.	.
.	.	.	8eJ 8c#)	.
12AJ)	.	.	.	.
!!LO:LB:g=original
=7	=7	=7	=7	=7
!	!	!	!	!LO:HP:b=2
(>4A	.	(>4g#	8d#L 8c#	>
.	.	.	8d#J 8c#	.
4BB#X	.	4f#	8d#L 8A	.
.	.	.	8d#J 8G#	.
8C#T>L\	.	8f#L	8c#L 8G#	]
32BB#XLL	.	8eJ)	8c#J 8G#	.
32C#	.	.	.	.
32D#	.	.	.	.
32EJJJ	.	.	.	.
=8	=8	=8	=8	=8
4GG#/)	.	(>8eL	8B#XL 8G#	.
.	.	8d#J	8B#J 8G#	.
!	!	!	!	!LO:HP:b=2
(>16FF##LL	.	2ryy	8g#L 8G#\	<
16GG#	.	.	.	.
16BB#X	.	.	8g# 8G#	.
16D#JJ	.	.	.	.
16F##XLL	.	.	8g# 8f#yX 8d#	.
16G#	.	.	.	.
8qBn/	.	.	.	.
16.A	.	.	8g#J 8f# 8d#	.
32G#JJk	.	.	.	[[
*	*	*v	*v	*
=9	=9	=9	=9
8qC#/)	.	.	.
!	!	!	!LO:HP:b=2
2e	.	8r	>
.	.	8cc#L 8g#	.
.	.	8cc# 8g#	.
.	.	8cc# 8g#	.
8.d#L	.	8cc# 8g#	.
.	.	8cc#J 8g#	.
16c#Jk	.	.	.
=10	=10	=10	=10
*	*	*^	*
[>4.c#	.	2ee	8aL 8e	.
.	.	.	8a 8e	.
.	.	.	8a 8e	.
32c#LLL]	.	.	8a 8e	.
32B#X	.	.	.	]
32d#	.	.	.	.
32c#JJJ	.	.	.	.
8.BnL	.	8.dd#L	8a 8e	.
.	.	.	8aJ 8e	.
16AJk	.	16cc#Jk	.	.
!!LO:LB:g=original
=11	=11	=11	=11	=11
*ped	*	*	*	*
(>8BBBL	.	2cc#	8aL 8d#	pp
16FF#L	.	.	8a 8d#	.
16BBJJ	.	.	.	.
16D#LL	.	.	8a 8d#	.
16F#	.	.	.	.
*Xped	*	*	*	*
16A	.	.	8a 8d#	.
16BJJ	.	.	.	.
!	!	!LO:TX:a:t=P:note position:problem	!	!
16d#LL	.	4b	8a	.
16c#JJ	.	.	.	.
24c#LL	.	.	8f#J 8d#	.
24B	.	.	.	.
24AJJ)	.	.	.	.
=12	=12	=12	=12	=12
(>4..G#	.	2b	8f#L 8dn	.
.	.	.	8f# 8d	.
.	.	.	8fn 8d	.
.	.	.	8f 8d	.
16G#	.	.	.	.
8qB/	.	.	.	.
8.AL	.	8..bL	8e#X 8c#X	.
.	.	.	8e#J 8c#	.
16G#Jk	.	.	.	.
.	.	32bJkk	.	.
=13	=13	=13	=13	=13
4G#)	.	4b)	8f#L 8c#	.
.	.	.	8f# 8c#	.
!	!	!	!	!LO:HP:b=2
(>8.FF#L	.	[>2a	8f# 8c#	<
.	.	.	8f# 8c#	.
16C#Jk	.	.	.	.
16F#LL	.	.	8f# 8c#	.
16G#	.	.	.	.
16A	.	.	8f#J 8c#	.
16BJJ	.	.	.	[[
!!LO:LB:g=original
=14	=14	=14	=14	=14
16cnLL	.	2.a_>	8f#L	.
16G#	.	.	.	.
16A	.	.	8f# 8e	.
16BJJ	.	.	.	.
!	!	!	!	!LO:HP:b=2
16cLL	.	.	8f# 8e	>
16A	.	.	.	.
16A#X	.	.	8f# 8e	.
16BJJ	.	.	.	.
[>4c)	.	.	8f# 8e	.
.	.	.	8f#J 8e	.
=15	=15	=15	=15	=15
!	!	!	!	!LO:DY:b=2:rj
(>16cnXLL]	.	2.a]	8f#L 8e	pp
16B	.	.	.	.
16dn	.	.	8f# 8e	.
16cJJ	.	.	.	.
16BLL	.	.	8f# 8e	.
16G#	.	.	.	.
16B	.	.	8f# 8e	.
16AJJ	.	.	.	.
16cLL	.	.	8f# 8e	.
16A	.	.	.	.
16E	.	.	8f#J 8e	.
16CnJJ	.	.	.	.
=16	=16	=16	=16	=16
16ALL	.	[>2ccn	8f#L 8e	.
16G#	.	.	.	.
16B	.	.	8f# 8e	.
16AJJ	.	.	.	.
16F#LL	.	.	8a 8e	.
16E#X	.	.	.	.
16Gn	.	.	8a 8e	.
16F#JJ	.	.	.	.
16ALL	.	8.ccL]	8f# 8e	.
16F#	.	.	.	.
16Cn	.	.	8f#J 8e	.
16AAJJ)	.	16ccJk	.	.
!!LO:LB:g=original
=17	=17	=17	=17	=17
!	!	!	!	!LO:HP:b=2
!	!	!LO:TX:a:t=P:łuk zaczyna się przed 4ccn i kończy za 4b:problem	!	!
(>16BBLL	.	(>4ccn	8g#L 8e	<
16E	.	.	.	.
16G#	.	.	8g# 8e	.
16EJJ	.	.	.	.
4.B)	.	4b)	8g# 8e	.
.	.	.	8g# 8e	[
.	.	4rcc	8g# 8e	.
(>8G#	.	.	8g#J 8e	.
*	*	*v	*v	*
=18	=18	=18	=18
16eLL	.	8r	.
16B	.	.	.
!	!	!	!LO:DY:a:rj
16.c#	.	(>8g#L 8e	pp
32G#JJk	.	.	.
4B	.	8g# 8e	.
.	.	8g# 8e	.
16c#LL	.	8g# 8e	.
16G#	.	.	.
16.B	.	8g#J 8e	.
32EJJk)	.	.	.
=19	=19	=19	=19
*	*	*^	*
*	*	*	*	*^
!	!	!	!	!	!LO:DY:rj
[>4G#	.	2b	8eL 8B	.	pp
.	.	.	8e 8B	.	.
(>16G#LL]\	.	.	8e 8B	.	.
16AA#X	.	.	.	.	.
!	!	!LO:TX:a:t=P:pusta wartość 8 bez pauzy w źródle:problem	!	!	!
16C#	.	.	8ryy	.	.
16BBJJ	.	.	.	.	.
!	!	!LO:TX:a:t=P:note position:problem	!	!	!
8.F#L	.	4b	8a 8d# 8B	.	.
.	.	.	8aJ 8d# 8B)	.	.
16EJk	.	.	.	.	.
*	*	*	*	*v	*v
*	*	*v	*v	*
=20	=20	=20	=20
*	*	*ped	*
4E)	.	(<8bL 8g# 8e 8B	.
.	.	8g#'< 8e 8B	.
4r	.	8b'< 8g# 8e	.
.	.	8ee'< 8b 8g#	.
4r	.	8gg#'< 8ee 8b	.
*	*	*Xped	*
.	.	8ee'<J 8b 8g#)	.
!!LO:PB:g=original
=21	=21	=21	=21
*	*	*^	*
!	!	!	!	!LO:HP:b=2
(>4e	.	(>4cc#	8a#XL 8f##X	>
.	.	.	8a# 8f##	.
4d#	.	[>4dd#	8a# 8f##	.
.	.	.	8a# 8f##	.
.	.	32qqdd#/L]	.	.
.	.	32qqdd#/	.	.
.	.	32qqee/	.	.
.	.	32qqdd#/	.	.
.	.	32qqcc##X/	.	.
.	.	32qqdd#/J	.	.
4A#X	.	8.ff##yL	8cc##y 8f##	.
.	.	.	8cc##J 8f##	.
.	.	16eeJk	.	]
=22	=22	=22	=22	=22
*Xtuplet	*	*	*	*
4c#	.	8dd#	8a#XL 8f##X	.
.	.	4gg#)	8dd# 8g#	.
8qqB/L	.	.	.	.
8qqd#/	.	.	.	.
8qqc#/J	.	.	.	.
8B)	.	.	8dd# 8g#	.
(>32FF##LLL	.	4.ryy	8dd# 8b 8g#	.
!	!	!	!	!LO:HP:b=2
32GG#	.	.	.	<
32AA#X	.	.	.	.
32BBJJJ	.	.	.	.
32C##XLLL	.	.	8dd# 8b 8g#	.
32D#	.	.	.	.
32F##X	.	.	.	.
32G#JJJ	.	.	.	.
48A#XLLL	.	.	8dd#J 8b 8g#	.
48B	.	.	.	.
48c##XJJJ	.	.	.	.
48d#LLL	.	.	.	.
48e	.	.	.	.
48e#XJJJ)	.	.	.	[[
=23	=23	=23	=23	=23
*clefG2	*	*	*	*
(>4f#	.	(>4dd#	8b#L 8g##	.
!	!	!LO:TX:a:t=P:note position:problem	!	!
.	.	.	8b# 8g##	.
16.e#XLL	.	4ee#	8dd# 8g##	.
!	!	!	!	!LO:HP:b=2
32f#JJk	.	.	.	<
24e#LL	.	.	8dd# 8g##	.
24d##X	.	.	.	.
24e#JJ	.	.	.	.
8.b#XL	.	4ff#	8dd# 8g##	[
.	.	.	8dd#J 8g##	.
16d#XJk	.	.	.	.
!!LO:LB:g=original
=24	=24	=24	=24	=24
!	!	!	!	!LO:HP:b=2
4d#	.	8ff#L	8bL 8g#X	>
.	.	8ee#XJ	8bJ 8g#	.
8qqc##X/L	.	.	.	.
8qqe#X/	.	.	.	.
8qqd#/J	.	.	.	.
8c##X)	.	4aa#)	8ee#L 8a#X 8g#	]
*clefF4	*	*	*	*
(>32GG##LLL	.	.	8ee# 8a# 8g#	.
!	!	!	!	!LO:HP:b=2
32AA#X	.	.	.	<
32C#	.	.	.	.
32C##XJJJ	.	.	.	.
32D##XLLL	.	4ryy	8ee# 8a# 8g#	.
32E#X	.	.	.	.
32G##X	.	.	.	.
32A#XJJJ	.	.	.	.
*clefG2	*	*	*	*
48c#XLLL	.	.	8ee#J 8a# 8g#	.
48c##X	.	.	.	.
48d##XJJJ	.	.	.	.
48e#XLLL	.	.	.	.
48g##X	.	.	.	.
48a#XJJJ	.	.	.	[
=25	=25	=25	=25	=25
!	!	!	!	!LO:DY:b=2:rj
8..bL	.	(>4ee#X	8cc##XL 8g#	f
.	.	.	8cc## 8g#	.
32BJkk	.	.	.	.
4B	.	4ff#	8dd# 8b 8a	.
.	.	.	8dd# 8b 8a	.
*clefF4	*	*	*	*
8qqA#X/L	.	.	.	.
8qqB/J	.	.	.	.
4B^<T>	.	4ff##X	8dd# 8b 8a	.
.	.	.	8dd#J 8b 8a	.
*tuplet	*	*	*	*
!!LO:LB:g=original
=26	=26	=26	=26	=26
56A#XLLL	.	4gg#	8eeL 8g#	.
56B	.	.	.	.
56c#	.	.	.	.
56B	.	.	.	.
56An	.	.	.	.
56G#	.	.	.	.
56F##X	.	.	.	.
56G#	.	.	8eeJ 8g#)	.
56A	.	.	.	.
56G#	.	.	.	.
56F#X	.	.	.	.
56E	.	.	.	.
56D#	.	.	.	.
56C#JJJ)	.	.	.	.
*Xtuplet	*	*	*	*
!LO:TX:a:Bi:t=cre-scen-do.:dur=3es:ext=ud:problem:text with extention lines	!	!	!	!
(<32Cn^<LLL	.	(>2aa 2ff#	8dd#L 8a	.
32BB	.	.	.	.
32AA#X	.	.	.	.
32BBJJJ	.	.	.	.
32BB-X^<LLL	.	.	8dd# 8a	[
32AAn	.	.	.	.
32GG#X	.	.	.	.
32AAJJJ	.	.	.	.
48AA-X^<LLL	.	.	8dd# 8a	<
48GGn	.	.	.	.
48FF#	.	.	.	.
48GG	.	.	.	.
48FF#	.	.	.	.
48FFnJJJ	.	.	.	.
48EELLL	.	.	8dd#J 8a	.
48DD-X	.	.	.	.
48DDn	.	.	.	.
48DD-X	.	.	.	.
48CCn	.	.	.	.
48BBBnJJJ)	.	.	.	[
!!LO:LB:g=original
=27	=27	=27	=27	=27
*cue	*	*	*	*
*rscale:1	*	*	*	*
!LO:TX:b:t=P:problem:komenda *rscale nie działa, '58' z jedną bleką 	!	!	!	!
(>232%3BBB-XL\	.	4bb- 4ggn	8ee- 8b-L\	fff
232%3AAA	.	.	.	.
!	!	!LO:TX:a:i:t=ritenuto.	!	!
232%3BBB-	.	.	.	.
232%3CCn	.	.	.	.
232%3DDn	.	.	.	.
232%3EE-X	.	.	.	.
232%3FFn	.	.	.	.
232%3GGn	.	.	.	.
232%3AA-X	.	.	.	.
232%3BB-X	.	.	.	.
.	.	.	8ee- 8b-J	.
232%3Cn	.	.	.	.
232%3Dn	.	.	.	.
232%3E-X	.	.	.	.
232%3Fn	.	.	.	.
232%3Gn	.	.	.	.
232%3A-X	.	.	.	.
232%3B-X	.	.	.	.
232%3cn	.	.	.	.
232%3dn	.	.	.	.
232%3e-X	.	.	.	.
.	.	4ggn 4ee-	8b- 8gnL\	.
232%3fn	.	.	.	.
232%3gn	.	.	.	.
232%3f	.	.	.	.
232%3e-	.	.	.	.
232%3d	.	.	.	.
232%3c	.	.	.	.
232%3B-	.	.	.	.
232%3An	.	.	.	.
232%3c	.	.	.	.
232%3B-	.	.	8b- 8gJ	.
232%3A-X	.	.	.	.
232%3G	.	.	.	.
232%3F	.	.	.	.
232%3E-	.	.	.	.
232%3D	.	.	.	.
232%3C	.	.	.	.
232%3BB-	.	.	.	.
232%3AAn	.	.	.	.
232%3C-X	.	.	.	.
.	.	4ryy	8ffn 8b- 8a-L\	.
232%3BB-	.	.	.	.
232%3Cn	.	.	.	.
232%3BBn	.	.	.	.
232%3D	.	.	.	.
232%3C	.	.	.	.
232%3BB-X	.	.	.	.
232%3AA	.	.	.	.
232%3C	.	.	.	.
232%3BB-	.	.	.	.
232%3AA-X	.	.	.	.
.	.	.	8b- 8a- 8dnJ	.
232%3GG	.	.	.	.
232%3FF	.	.	.	.
232%3EE-	.	.	.	.
232%3DD	.	.	.	.
232%3CC	.	.	.	.
232%3BBB-	.	.	.	.
232%3AAA-X	.	.	.	.
232%3GGGny	.	.	.	.
232%3FFFnJ)	.	.	.	.
*rscale:1	*	*	*	*
*Xcue	*	*	*	*
*tuplet	*	*	*	*
=28	=28	=28	=28	=28
*	*	*	*	*^
*ped	*	*	*	*	*
!LO:TX:b:t=P:znak pedalizacji przed nutą:problem	!	!	!	!	!
4EEE-X	.	2ee-X^>	8gnL 8e-X	.	fz
.	.	.	8e-	.	p
4r	.	.	8e-)	.	.
!	!	!	!	!LO:DY:a:	!LO:DY:b=2:
.	.	.	8e-J	pp	.
*Xped	*	*	*	*	*
!	!	!	!	!	!LO:HP:b=2
!	!	!	!	!	!LO:DY:rj
(>8.d#XL	.	(>8dd#XL/	4ryy	.	>
.	.	8dd#J	.	.	.
16c#XJk	.	.	.	.	]
*	*	*	*	*v	*v
!!LO:LB:g=original
=29	=29	=29	=29	=29
16BLL	.	2dd#	8rg	.
*ped	*	*	*	*
16F#	.	.	.	.
16BB	.	.	8f#L 8d#	.
16C#JJ	.	.	.	.
16D#LL	.	.	8f# 8d#	.
16FF#	.	.	.	.
16BBBJJ	.	.	8f#J 8d#	.
16r)	.	.	.	.
!	!	!	!	!LO:HP:b=2
(>8.d#L	.	8.dd#L	8rg	>
.	.	.	8b 8f#	.
*Xped	*	*	*	*
16c#Jk	.	16eeJk	.	]
=30	=30	=30	=30	=30
16BLL	.	2ff#	8rg	.
*ped	*	*	*	*
16F#	.	.	.	.
16BB	.	.	8dd#L 8b 8f#)	.
16C#JJ	.	.	.	.
16D#LL	.	.	8dd# 8b 8f#	.
16FF#	.	.	.	.
16BBBJJ	.	.	8dd# [>8b [>8f#	.
16r)	.	.	.	.
!	!	!	!	!LO:HP:b=2
(>8.d#L	.	(>8..ff#L	8b] 8f#]	>
.	.	.	[>8dd#J [>8b [>8f#	.
*Xped	*	*	*	*
16c#Jk	.	.	.	]
.	.	32gg#Jkk	.	.
=31	=31	=31	=31	=31
!	!	!	!LO:TX:a:t=P:łuk kończy się miedzy nutami:problem	!
16BLL	.	2gg#	8dd#L] 8b] 8f#]	.
*ped	*	*	*	*
16F#	.	.	.	.
16BB	.	.	8dd# 8b 8f#	.
16C#JJ	.	.	.	.
16D#LL	.	.	8dd# 8b 8f#)	.
16FF#	.	.	.	.
16DD#JJ	.	.	8dd#J [>8b [>8f#	.
16r)	.	.	.	.
(>8.d#L	.	(>8..ff#L	8bL] 8f#]	.
.	.	.	[<8bJ 8f#	.
*Xped	*	*	*	*
16c#Jk	.	.	.	.
.	.	32dd#Jkk	.	.
=32	=32	=32	=32	=32
16BLL	.	4.dd#/	8b\L]	.
*ped	*	*	*	*
16Gn	.	.	.	.
16E	.	.	8bn 8g# 8e	.
*Xped	*	*	*	*
16F#JJ	.	.	.	.
16GLL	.	.	8b 8g# 8e	.
*ped	*	*	*	*
16BB	.	.	.	.
16BBBJJ	.	8cc#L	8g# 8e	.
16r)	.	.	.	.
(>8.d#L	.	8b	8g# 8e	.
.	.	(>8cc#Jk	8b 8g# 8eJ	.
*Xped	*	*	*	*
16c#Jk	.	.	.	.
=33	=33	=33	=33	=33
16BLL	.	2dd# 2b)	8re	.
*ped	*	*	*	*
16F#	.	.	.	.
16BB	.	.	8f#L 8d#	.
16C#JJ	.	.	.	.
16D#LL	.	.	8f# 8d#	.
16FF#	.	.	.	.
16BBBJJ	.	.	8f#J 8d#	.
16r)	.	.	.	.
!	!	!	!	!LO:HP:b=2
(>8.d#L	.	8..dd#L	8re	>
.	.	.	[>8b [>8f#	.
*Xped	*	*	*	*
16c#Jk	.	.	.	]
.	.	32eeJkk	.	.
!!LO:LB:g=original
=34	=34	=34	=34	=34
16BLL	.	2ff#	8b] 8f#]L	.
*ped	*	*	*	*
16F#	.	.	.	.
16BB	.	.	8dd# 8b 8f#	.
16C#JJ	.	.	.	.
16D#LL	.	.	8dd# 8b 8f#	.
16FF#	.	.	.	.
16BBBJJ	.	.	[>8dd# [>8b [>8f#	.
16r)	.	.	.	.
(>8.d#L	.	8..ff#L	8dd#] 8b] 8f#]	.
.	.	.	8dd# 8b 8f#J	.
*Xped	*	*	*	*
16c#Jk	.	.	.	.
.	.	32gg#Jkk	.	.
=35	=35	=35	=35	=35
16BLL	.	4aa:	8dd#: 8b: 8f#:	.
*ped	*	*	*	*
16F#	.	.	.	.
16BB	.	.	4dd# 4b 4f#	ppp
16C#JJ	.	.	.	.
16D#LL	.	2ryy	.	.
16FF#	.	.	.	.
16BBBJJ)	.	.	4dd# 4b 4f#\	.
16r	.	.	.	.
!LO:TX:b:i:t=smorz.	!	!	!	!
(>8.d#L	.	.	.	.
.	.	.	8dd# 8b 8f#\	.
16c#Jk	.	.	.	.
*	*	*v	*v	*
=36	=36	=36	=36
16BLL	.	2dd# 2b 2f#)	.
16F#	.	.	.
16BB	.	.	.
16C#JJ	.	.	.
16D#LL	.	.	.
16FF#	.	.	.
16BBBJJ	.	.	.
*Xped	*	*	*
16r;>)	.	.	.
(>8.B^>L	.	8r	.
.	.	(>8dd# 8b 8f#	.
16AJk	.	.	.
=37	=37	=37	=37
*	*	*^	*
4A	.	2ee	8bL 8e	.
.	.	.	8b 8e	.
4Gn	.	.	8b 8e	.
.	.	.	8b 8e	.
!	!	!	!	!LO:HP:b=2
4G#Xt>)	.	8..eeL	8b 8e	<
.	.	.	8bJ 8e	.
.	.	32ddnJkk	.	.
(>16qqF##X/LL	.	.	.	.
16qqG#/JJ	.	.	.	[
=38	=38	=38	=38	=38
4A)	.	8.ddnL	8aL 8e	.
.	.	.	8a 8e	.
.	.	16ccnJk	.	.
(>4E	.	4b)	8g# 8e	.
.	.	.	8g# 8e	.
4A	.	(>8.ddL	8a 8e	.
.	.	.	8aJ 8e	.
.	.	16ccJk	.	.
!!LO:PB:g=original
=39	=39	=39	=39	=39
4E	.	4b	8g#L 8e	.
.	.	.	8g#J 8e	.
4Fn	.	8bL	4fn 4cn	.
.	.	16aJk)	.	.
.	.	16r	.	.
8.CnL	.	4r	4ryy	.
16BB-XJk	.	.	.	.
.	.	.	.	.
*	*	*v	*v	*
=40	=40	=40	=40
!	!	!	!LO:DY:b=2:rj
16AALL\	.	2.rdd	pp
16Cn	.	.	.
16Fn	.	.	.
16CJJ	.	.	.
4A)	.	.	.
4r	.	.	.
=41	=41	=41	=41
(>16BBLL	.	8r	.
16E	.	.	.
16G#	.	(>8g# 8e	.
16EJJ	.	.	.
4.B	.	8g#L 8e	.
.	.	8g# 8e	.
.	.	8g# 8e	.
8G#	.	8g#J 8e)	.
=42	=42	=42	=42
!	!	!	!LO:HP:b=2
16eLL	.	8r	>
16B	.	.	.
16c#	.	(>8g#L 8e	.
16G#JJ	.	.	.
4B	.	8g# 8e	.
.	.	8g# 8e	.
16c#LL	.	8g# 8e	]
16G#	.	.	.
16.B	.	8g#J 8e	.
!LO:TX:b:t=P:łuk kończy się na kresce taktowej:problem	!	!	!
32EJJk)	.	.	.
=43	=43	=43	=43
*	*	*^	*
!LO:TX:b:i:t=ten.	!	!	!	!
[>4G#	.	2b	8eL 8B	.
.	.	.	8e 8B	.
(>16G#LL]\	.	.	8e 8B	.
16AA#X	.	.	.	.
16C#	.	.	8e 8B	.
16BBJJ	.	.	.	.
!	!	!	!LO:TX:a:t=P:note position:problem	!
8.F#L	.	4b	8a 8d# 8B	.
.	.	.	8aJ 8d# 8B	.
16EJk)	.	.	.	.
!!LO:LB:g=original
=44	=44	=44	=44	=44
!LO:TX:a:i:t=poco ritenuto.	!	!	!	!
[>4E	.	2b	8g#L 8e 8B	.
!	!	!	!	!LO:DY:b=2
.	.	.	8g# 8e 8B	pp
(>16ELL]\	.	.	8g# 8e 8B	.
16FF##X	.	.	.	.
16AA	.	.	8g# 8e 8B	.
16GG#JJ	.	.	.	.
8.D#L\	.	8..b#XL	8g# 8f# 8B#X	.
.	.	.	8g#J 8f# 8B#	.
16C#Jk)	.	.	.	.
.	.	32cc#Jkk	.	.
*	*	*v	*v	*
=45	=45	=45	=45
*	*^	*	*
*ped	*	*	*	*
16qqCC#/LL	.	1	.	.
16qqC#/JJ	.	1	.	.
!	!	!	!	!LO:DY:rj
!	!	!	!	!LO:HP:b=2
(>2e	.	.	8r	fz >
.	.	.	8cc#L 8g#	.
.	.	.	8cc# 8g#	.
.	.	.	8cc# 8g#	.
*Xped	*	*	*	*
8.d#L	.	.	8cc# 8g#	.
.	.	.	8cc#J 8g#)	.
16c#Jk	.	.	.	.
*	*v	*v	*	*
=46	=46	=46	=46
*	*	*^	*
4..c#	.	(>2ee	8aL 8e	.
.	.	.	8a 8e	.
.	.	.	8a 8e	.
.	.	.	8a 8e	.
32d#LLL	.	.	.	.
32c#JJJ	.	.	.	.
8.BL	.	8.dd#L	8a 8e	.
.	.	.	8aJ 8e	.
16AJk	.	16cc#Jk)	.	.
=47	=47	=47	=47	=47
[>4A	.	(>4cc#	8f#L 8d#	.
.	.	.	8f# 8d#	.
16ALL]	.	4b#X	8f# 8d#	.
16G#X	.	.	.	.
16F##X	.	.	8f# 8d#	]
16G#JJ	.	.	.	.
16BLL	.	4cc#	8f# 8d#	.
16A	.	.	.	.
16F#X	.	.	8f#J 8d#	.
16D#JJ	.	.	.	.
=48	=48	=48	=48	=48
4BB#X)	.	4dd#	8f#L 8d#	.
.	.	.	8f# 8d#	.
8r	.	4..g#	8f# 8d#)	.
(>16FF##XLL	.	.	8f# 8d#	.
16GG#JJ	.	.	.	.
8qBBn/	.	.	.	.
16AALL\	.	.	8f# 8B	.
16GG#	.	.	.	.
16C#	.	.	8f#J 8B	.
16D#JJ	.	(>16g#	.	.
!!LO:LB:g=original
=49	=49	=49	=49	=49
4E)	.	4g#	8rB	.
.	.	.	8c#L	.
(>4CC#	.	4cc#	8e 8c#	.
.	.	.	8e 8c#	.
8.G#L	.	4b	8e 8c#	.
.	.	.	8eJ 8c#)	.
16G#Jk	.	.	.	.
=50	=50	=50	=50	=50
*Xtuplet	*	*	*	*
4G#^<)	.	(>4b	8eL 8c#	.
.	.	.	8e 8c#	.
8qFFF#/	.	.	.	.
(>12FF#L\	.	4a	8e 8c#	.
12C#	.	.	.	.
.	.	.	8e 8c#	.
12F#J	.	.	.	.
12G#L\	.	4g#	8e 8c#	.
12B	.	.	.	.
.	.	.	8eJ 8c#	.
12AJ	.	.	.	.
=51	=51	=51	=51	=51
4A	.	4g#	8d#L 8c#	.
.	.	.	8d# 8c#	.
4BB#X	.	4f#	8d# 8A	.
.	.	.	8d# 8G#	.
8C#T>L\	.	8f#L	8c# 8G#	.
32BB#LL	.	8eJ	8c#J 8G#	.
32C#	.	.	.	.
32D#	.	.	.	.
32EJJJ	.	.	.	.
=52	=52	=52	=52	=52
*	*	*	*	*^
!LO:TX:b:t=P:problem:nie działa komenda *rscale, '33' z jedną belką	!	!	!	!	!
4GG#)	.	8eL	8B#XL 8G#	.	.
.	.	8d#J	8B#J 8G#	.	.
*rscale:1	*	*	*	*	*
*cue	*	*	*	*	*
(<66FFF##XL/	.	8g#L 8G#	2ryy	.	.
66GGG#	.	.	.	.	.
66AAA	.	.	.	.	.
!	!	!	!	!LO:HP:b=2	!
66AAA#X	.	.	.	<	.
66BBB	.	.	.	.	.
66BBB#X	.	.	.	.	.
66CC#	.	.	.	.	.
66CC##X	.	.	.	.	.
66DD#	.	.	.	.	.
.	.	8g# 8G#	.	.	.
!	!	!	!	!	!LO:HP:b=2
66EE	.	.	.	.	<
66EE#X	.	.	.	.	.
66FF#X	.	.	.	.	.
66FF##X	.	.	.	.	.
66GG#	.	.	.	.	.
66AA	.	.	.	.	.
66AA#X	.	.	.	.	.
66BB	.	.	.	.	.
.	.	8g# 8f# 8d# 8G#	.	.	.
66BB#X	.	.	.	.	.
66C#	.	.	.	.	.
66C##X	.	.	.	.	.
66D#	.	.	.	.	.
66E	.	.	.	.	.
66E#X	.	.	.	.	.
66F#X	.	.	.	.	.
66F##X	.	.	.	.	.
.	.	8g#J 8f# 8d#)	.	.	.
66G#	.	.	.	.	.
66A	.	.	.	.	.
66A#X	.	.	.	.	.
66B	.	.	.	.	.
66B#X	.	.	.	.	.
66c#	.	.	.	.	.
66c##X	.	.	.	.	.
66d#J)	.	.	.	[	.
*Xcue	*	*	*	*	*
*rscale:1	*	*	*	*	*
*tuplet	*	*	*	*	*
*	*	*v	*v	*	*
*	*	*	*v	*v
!!LO:LB:g=original
=53	=53	=53	=53
!	!	!	!LO:DY:b=2
(>2e	.	8r	fz
.	.	(>8cc#L 8g#	.
!	!	!	!LO:HP:b=2
.	.	8cc# 8g#	>
.	.	8cc# 8g#	.
8.d#L	.	8cc# 8g#	.
.	.	8cc#J 8g#	.
16c#Jk)	.	.	.
=54	=54	=54	=54
*	*	*^	*
[>4.c#	.	2ee	8aL 8e	.
.	.	.	8a 8e	.
.	.	.	8a 8e	.
(>32c#LLL]	.	.	8aJ 8e	.
32B#X	.	.	.	.
32d#	.	.	.	.
32c#JJJ	.	.	.	.
8.BnL	.	8.dd#L	8aL 8e	.
.	.	.	8aJ 8e	.
16AJk)	.	16cc#Jk	.	]
=55	=55	=55	=55	=55
(>4A	.	4cc#	8e#XL 8dn	.
.	.	.	8e# 8d	.
4G#)	.	4b	8e# 8d	.
.	.	.	8e# 8d	.
16qqE#X/L	.	.	.	.
!	!	!LO:TX:b:t=P:tryl pod łukiem:problem	!	!
(>16qqF#/J	.	.	.	.
4F#^<T>	.	4b	8f# 8d	.
.	.	.	8f#J 8d	.
=56	=56	=56	=56	=56
4E#X	.	2b	8g#L 8dn	.
.	.	.	8g# 8d	.
4g#^<)	.	.	8d	.
.	.	.	8d	.
(>4EE#X^<	.	8.cc#L	8g# 8c#	.
.	.	.	8g#J 8c#	.
.	.	16bJk	.	.
=57	=57	=57	=57	=57
16FF#LL	.	4b	8f#L 8c#	.
16GG#	.	.	.	.
!	!	!	!	!LO:HP:b=2
16FF#	.	.	8f# 8c#	<
16EE#XJJ	.	.	.	.
16FF#LL	.	[>2a)	8f# 8c#	.
16GG#	.	.	.	.
16AA	.	.	8f# 8c#	.
16GG#JJ	.	.	.	.
16BBLL	.	.	8f# 8c#	.
16AA	.	.	.	.
16GG#	.	.	8f#J 8c#	.
16FF#JJ	.	.	.	.
!!LO:LB:g=original
=58	=58	=58	=58	=58
16ELL	.	2a]	8f#L 8c#	.
16D#	.	.	.	.
16C##X	.	.	8f# 8c#	.
16D#JJ	.	.	.	.
16BLL	.	.	8f# 8c#	[
16A	.	.	.	.
16G#	.	.	8f# 8c#	.
16F#JJ	.	.	.	.
16ELL	.	8.aL	8f# 8c#	.
16D#	.	.	.	.
16F#	.	.	8f#J 8c#	.
16AJJ	.	16aJk	.	.
=59	=59	=59	=59	=59
16GG#LL\	.	4a	8eL 8c#	.
16C#	.	.	.	.
16E	.	.	8e 8c#	.
16C#JJ	.	.	.	.
4.G#	.	2g#	8e 8c#	.
.	.	.	8e 8c#	.
.	.	.	8e 8c#	.
8E)	.	.	8eJ 8c#	.
.	.	.	.	.
=60	=60	=60	=60	=60
!	!	!	!	!LO:DY:rj
(>16c#LL	.	(>2ee	8cc#L 8e	pp
16G#	.	.	.	.
16A	.	.	8cc# 8e	.
16EJJ	.	.	.	.
4G#)	.	.	8cc# 8e	.
.	.	.	8cc# 8e	.
(>16c#LL	.	[>4ee	8cc# 8e	.
16G#	.	.	.	.
16A	.	.	8cc#J 8e	.
16EJJ	.	.	.	.
=61	=61	=61	=61	=61
4G#)	.	4ee]	8cc#L 8e	.
.	.	.	8cc# 8e	.
16ALL	.	2cc#	8e 8c#	.
16E	.	.	.	.
16.G#	.	.	8e 8c#	.
32C#JJk	.	.	.	.
[>4E	.	.	8g# 8c#	.
.	.	.	8g#J 8c#	.
=62	=62	=62	=62	=62
4E_>	.	2g#)	8c#L 8G#	.
.	.	.	8c# 8G#	.
!LO:TX:b:t=P:mixed beam:problem	!	!	!	!
!	!	!	!	!LO:HP:b=2
(>16ELL]\	.	.	8e 8c# 8G#	<
16FF##X/	.	.	.	.
16AA/	.	.	8e 8c# 8G#	.
!	!	!LO:TX:a:i:t=ritenuto.	!	!
16GG#/JJ	.	.	.	.
!	!	!LO:TX:a:t=P:note position:problem	!	!
8.D#L\	.	4g#	8f# 8B# 8G#	.
.	.	.	8f#J 8B# 8G#	.
16C#Jk)	.	.	.	[
*	*	*v	*v	*
!!LO:LB:g=original
=63	=63	=63	=63
*	*	*^	*
!	!	!	!	!LO:DY:rj
!LO:TX:b:i:t=ten.	!	!	!	!
[>4C#	.	(>4g#	8e#X<L 8B< 8G#<	f
.	.	.	8e#<J 8B< 8G#<	.
(>16C#LL]	.	2f#	8en<L 8A#X< 8F#<	.
16EE#X	.	.	.	.
16GG#	.	.	8e<J 8A#< 8F#<	.
16FF#JJ	.	.	.	.
!LO:TX:b:i:t=dimin. _:problem:dynamics with extention lines	!	!	!	!
!	!	!	!	!LO:HP:b=2:i:t=dimin.:ext=ud
[>4BB)	.	.	8d#<L 8An< 8F#<	>
.	.	.	8d#<J 8A< 8F#<	.
=64	=64	=64	=64	=64
16BBLL]	.	4e	8d#<L 8G#< 8E<	.
16DD#	.	.	.	.
16FF#	.	.	8d#<J 8G#< 8E<	.
16EEJJ	.	.	.	.
16AA#XLL	.	8eL	8c#<L 8G#< 8E<	.
16CC##X	.	.	.	.
16EE	.	8d#J	8c#<J 8F##X< 8D#<	.
16DD#JJ	.	.	.	.
8.AAn^<L	.	8..d#L	8c#<L 8F#X< 8D#<	.
.	.	.	8B#X<J 8F#< 8D#<	.
16GG#Jk	.	.	.	.
.	.	32c#Jkk)	.	.
*	*	*v	*v	*
=65	=65	=65	=65
[<4CC#\	.	(>8c#L 8E<	.
.	.	8e 8c# 8G#<	]
!LO:TX:t=smor-zan-do:dur=3qe:ext=cd:problem:text with extention lines	!	!	!
(>16CC#LL]\	.	8e 8c# 8G#<	.
16DD#	.	.	.
16FF#	.	8eJ 8c# 8G#<	.
16EEJJ	.	.	.
8.AAL\	.	8d#< 8c#< 8F#<L/	.
.	.	8d#< 8B#X< 8F#<J/	.
16GG#Jk	.	.	.
=66	=66	=66	=66
16CC#LL\	.	8e L8c# 8E<	.
16DD#	.	.	.
16FF#	.	8e 8c# 8G#<	.
16EEJ	.	.	.
8AAJ)	.	8d#J 8c# 8F#<)	.
!	!	!	!LO:DY:b=2
4r;>	.	4r;>	pp
(>8GG#\	.	(>8d#< 8B#X< 8F#</	.
=67	=67	=67	=67
4CC#)\	.	4c#< 4E<)/	.
4rDD	.	4rB<	.
(<4GG#'< 4CC#'<\	.	(>4c#<'> 4E<'>/	.
!LO:TX:b:Bi:t=FINE.	!	!	!
=68	=68	=68	=68
!LO:N:vis=2	!	!LO:N:vis=2	!
2.GG#;< 2.CC#)\	.	2.c#<;> 2.E<)/	.
==	==	==	==
*-	*-	*-	*-
!!title: @{OTL}; @{OPS} @{ONM} publisher: @{PPR}
!!!RDF**kern: > = above
!!!RDF**kern: < = below
!!!RDF**kern: N = linked
!!!RDF**dynam: < = "crescendo.", fontstyle= "italic"
!!!RDF**dynam: > = "dimin.", fontstyle= "italic"
!!!ENC: Wojciech Jakubiak-Danek
!!!END: 2018-10-30
!!!EED: Zofia Trojan
!!!EST: 2018-11-03
!!!EED2: Wojciech Jakubiak-Danek
!!!EST2: 2019-10-21
!!!rism-genre: Etude
!!!rism-key: C-sharp minor
!!!rism-opus: op.  25, no. 7
!!!rism-title: Etude in C-sharp minor op.  25, no. 7
!!!rism-permalink: https://opac.rism.info/search?id=1001007334&View=rism
!!!rism-773a-OPR: 1001007325
!!!rism-parent-permalink: https://opac.rism.info/search?id=1001007325&View=rism
